X:135
T:Farewell to Nancy Balderose
T:- waltz (or air) -
C: 2007, 2010 L.E. McCullough 
M:3/4
L:1/8
K:G
dc |: B4AG  | A2<D2GF | G4FD | E4GE | 
D4GA | B2<d2B2 | c2<d2B2 | A4dc |
B4AG  | A2<D2GF | G2f2d2 | e4(3efe | 
d2<B2c | B2A2F2 | G2>A2 GF |1 G4dc:|2 G4Bd|]
|: e4g2 | e4dB | A2>B2 GA |BAG2AB |
c2d2e2 | B2A2G2 | A2>D2 cB | A4Bd |
e4ga | f4ed | g4fd | e4(3efe |
d2<B2d2 | g2B2G2 | A4GF |1 G4gf:|2 G4dc|]
<end>
<start>
